assets/aqua/mono.svg

<svg viewBox="0 0 24 24" xmlns="http://www.w3.org/2000/svg"><path d="m17.7875 18.6811c.7687 0 .7695.7105.7695.7517.0003.2888-.1047.4303-.2229.5535l-3.6066 3.6127c-.2547.2557-.5963.4006-.9567.401h-12.8918c-.1444.0002-.2889-.0409-.4238-.1226-.2628-.1525-.46-.4826-.4551-.8042v-4.3921zm5.2757-18.681c.3202-.0053.6491.1893.8014.4518.0814.1348.1354.279.1354.4234v12.8817c0 .3601-.1402.7054-.3946.9602l-3.5466 3.5524c-.137.1371-.274.2744-.6027.2744-.0411 0-.8225 0-.8225-.7681v-17.7758zm-18.5093 5.4819s.824 0 .824.7699v12.0934h-5.3778v-8.0648c0-.361.1397-.7072.3945-.9625l3.5554-3.561c.1372-.1376.2744-.275.6039-.275zm13.7444-5.4818v5.377h-12.0433c-.7669 0-.7669-.8233-.7669-.8233 0-.3292.137-.4663.2739-.6035l3.5467-3.5524a1.3545 1.3545 0 0 1 .9585-.3977h8.0311z"/></svg>

<svg xmlns="http://www.w3.org/2000/svg" viewBox="0 0 24 24"><path d="M17.788 18.681c.768 0 .769.71.769.752 0 .289-.105.43-.223.553L14.728 23.6a1.35 1.35 0 0 1-.957.401H.879a.8.8 0 0 1-.424-.123.96.96 0 0 1-.455-.804v-4.392zM23.063.001c.32-.006.65.188.802.45A.83.83 0 0 1 24 .876v12.882c0 .36-.14.705-.395.96L20.06 18.27c-.137.137-.274.274-.603.274-.041 0-.822 0-.822-.768V0zM4.553 5.481s.825 0 .825.77v12.093H0v-8.064c0-.361.14-.708.395-.963L3.95 5.757c.137-.138.274-.275.604-.275M18.299 0v5.377H6.255c-.767 0-.767-.823-.767-.823 0-.33.137-.466.274-.604L9.309.398A1.36 1.36 0 0 1 10.267 0z"/></svg>
